Icons/Line/si_More_square_horiz.svg

<svg width="24" height="24" viewBox="0 0 24 24" fill="none" xmlns="http://www.w3.org/2000/svg">
<path d="M12.4667 11H11.5333C11.2388 11 11 11.2388 11 11.5333V12.4667C11 12.7612 11.2388 13 11.5333 13H12.4667C12.7612 13 13 12.7612 13 12.4667V11.5333C13 11.2388 12.7612 11 12.4667 11Z" stroke="black" stroke-width="1.5" stroke-miterlimit="10"/>
<path d="M19.4667 11H18.5333C18.2388 11 18 11.2388 18 11.5333V12.4667C18 12.7612 18.2388 13 18.5333 13H19.4667C19.7612 13 20 12.7612 20 12.4667V11.5333C20 11.2388 19.7612 11 19.4667 11Z" stroke="black" stroke-width="1.5" stroke-miterlimit="10"/>
<path d="M5.46667 11H4.53333C4.23878 11 4 11.2388 4 11.5333V12.4667C4 12.7612 4.23878 13 4.53333 13H5.46667C5.76122 13 6 12.7612 6 12.4667V11.5333C6 11.2388 5.76122 11 5.46667 11Z" stroke="black" stroke-width="1.5" stroke-miterlimit="10"/>
</svg>

<svg width="24" height="24" fill="none" xmlns="http://www.w3.org/2000/svg"><path d="M12.467 11h-.934a.533.533 0 0 0-.533.533v.934c0 .294.239.533.533.533h.934a.533.533 0 0 0 .533-.533v-.934a.533.533 0 0 0-.533-.533ZM19.467 11h-.934a.533.533 0 0 0-.533.533v.934c0 .294.239.533.533.533h.934a.533.533 0 0 0 .533-.533v-.934a.533.533 0 0 0-.533-.533ZM5.467 11h-.934a.533.533 0 0 0-.533.533v.934c0 .294.239.533.533.533h.934A.533.533 0 0 0 6 12.467v-.934A.533.533 0 0 0 5.467 11Z" stroke="#000" stroke-width="1.5" stroke-miterlimit="10"/></svg>
